X: 4162
T: Blue Keys, The
R: reel
M: 4/4
K: Amajor
F2 B/c/e fB{B}c2|Bcaf c2BA|{A}B2Bc efB2-|B2BA Bcec|
F2 B/c/e fBcF|Bcaf c2BA|Bz BA Bcez|Bcec f4||
F2 B/c/e fB{B}c2|Bcaa c2ef|B2Bc efB2-|B2BA c3B/A/|
F2 B/c/e fBcz|Bcaf c2BA|Bz B/B/B Bcef|B/c/cec f4||
z2 ba bc'f2-|f2e2 c2B2-|B2BA Bcee|BBBc A2F2-|
F2 ba bc'f2-|ffec a4-|abaf ecf2|ecB2 B/c/eBA||
f2 ba bc'fz|ffee ccB2-|B2BA Bcee|BBBc A2F2|
z2 ba bc'f2-|ffec a4-|abaf ecf2|ecB2 B/c/eBA||

